X:3380
T:La Catinou
O:england
M:3/8
L:1/8
K:C
def|g>ag|fg2|f2e|\
def|g>ag|fg2|d3:|
|:cde|f>ed|cd>e|c2B|\
cde|f>ed|cd>e|c3:|


